src/gui/emoticons/cowboy.svg

<svg xmlns="http://www.w3.org/2000/svg" xmlns:xlink="http://www.w3.org/1999/xlink" width="16pt" height="16pt" version="1.1" viewBox="0 0 16 16"><defs><linearGradient id="linear0" x1="64" x2="64" y1="28.991" y2="110.68" gradientTransform="matrix(0.125,0,0,0.125,0,0)" gradientUnits="userSpaceOnUse"><stop offset=".5" style="stop-color:#fee133;stop-opacity:1"/><stop offset=".612" style="stop-color:#fede32;stop-opacity:1"/><stop offset=".708" style="stop-color:#fcd32f;stop-opacity:1"/><stop offset=".797" style="stop-color:#fac12b;stop-opacity:1"/><stop offset=".883" style="stop-color:#f7a924;stop-opacity:1"/><stop offset=".9" style="stop-color:#f6a323;stop-opacity:1"/></linearGradient><clipPath id="clip1"><path d="M 3 1 L 13 1 L 13 5 L 3 5 Z M 3 1"/></clipPath><clipPath id="clip2"><path d="M 12.355469 4.285156 C 12.050781 2.652344 10.824219 -0.246094 9.511719 -0.246094 C 8.417969 -0.246094 8.640625 0.21875 8.027344 0.21875 C 7.382812 0.21875 7.605469 -0.246094 6.566406 -0.246094 C 5.292969 -0.246094 3.90625 2.652344 3.605469 4.285156 C 4.832031 4.503906 6.578125 4.617188 8.03125 4.617188 C 9.488281 4.617188 11.128906 4.503906 12.355469 4.285156 Z M 12.355469 4.285156"/></clipPath><clipPath id="clip3"><path d="M 4 10 L 12 10 L 12 15 L 4 15 Z M 4 10"/></clipPath><clipPath id="clip4"><path d="M 8 11.070312 C 6.742188 11.070312 5.574219 10.953125 4.597656 10.757812 C 4.355469 10.707031 4.140625 10.941406 4.191406 11.207031 C 4.515625 12.949219 6.078125 14.378906 7.996094 14.378906 C 10.101562 14.378906 11.515625 12.902344 11.808594 11.199219 C 11.855469 10.9375 11.640625 10.707031 11.402344 10.757812 C 10.425781 10.953125 9.257812 11.070312 8 11.070312 Z M 8 11.070312"/></clipPath><clipPath id="clip5"><path d="M 4 10 L 12 10 L 12 13 L 4 13 Z M 4 10"/></clipPath><clipPath id="clip6"><path d="M 8 11.070312 C 6.742188 11.070312 5.574219 10.953125 4.597656 10.757812 C 4.355469 10.707031 4.140625 10.941406 4.191406 11.207031 C 4.515625 12.949219 6.078125 14.378906 7.996094 14.378906 C 10.101562 14.378906 11.515625 12.902344 11.808594 11.199219 C 11.855469 10.9375 11.640625 10.707031 11.402344 10.757812 C 10.425781 10.953125 9.257812 11.070312 8 11.070312 Z M 8 11.070312"/></clipPath><clipPath id="clip7"><path d="M 5 13 L 11 13 L 11 15 L 5 15 Z M 5 13"/></clipPath><clipPath id="clip8"><path d="M 8 11.070312 C 6.742188 11.070312 5.574219 10.953125 4.597656 10.757812 C 4.355469 10.707031 4.140625 10.941406 4.191406 11.207031 C 4.515625 12.949219 6.078125 14.378906 7.996094 14.378906 C 10.101562 14.378906 11.515625 12.902344 11.808594 11.199219 C 11.855469 10.9375 11.640625 10.707031 11.402344 10.757812 C 10.425781 10.953125 9.257812 11.070312 8 11.070312 Z M 8 11.070312"/></clipPath><clipPath id="clip9"><path d="M 4 10 L 12 10 L 12 15 L 4 15 Z M 4 10"/></clipPath><clipPath id="clip10"><path d="M 8 11.070312 C 6.742188 11.070312 5.574219 10.953125 4.597656 10.757812 C 4.355469 10.707031 4.140625 10.941406 4.191406 11.207031 C 4.515625 12.949219 6.078125 14.378906 7.996094 14.378906 C 10.101562 14.378906 11.515625 12.902344 11.808594 11.199219 C 11.855469 10.9375 11.640625 10.707031 11.402344 10.757812 C 10.425781 10.953125 9.257812 11.070312 8 11.070312 Z M 8 11.070312"/></clipPath><clipPath id="clip11"><path d="M 3.738281 9.660156 L 3.738281 10.96875 C 5.050781 11.816406 6.488281 12.285156 8 12.285156 C 9.511719 12.285156 10.949219 11.816406 12.261719 10.96875 L 12.261719 9.660156 Z M 8 13.171875 C 7.058594 13.171875 6.234375 13.734375 5.796875 14.574219 C 6.367188 14.914062 7.140625 15.125 8 15.125 C 8.859375 15.125 9.632812 14.914062 10.203125 14.574219 C 9.765625 13.734375 8.941406 13.171875 8 13.171875 Z M 8 13.171875"/></clipPath></defs><g id="surface1"><path style="stroke:none;fill-rule:nonzero;fill:#7a5549;fill-opacity:1" d="M 8 4.96875 C 3.582031 4.96875 0 1.191406 0 2.851562 C 0 14.714844 16 14.714844 16 2.851562 C 16 1.125 12.417969 4.96875 8 4.96875 Z M 8 4.96875"/><path style="stroke:none;fill-rule:nonzero;fill:url(#linear0)" d="M 8 15.25 C 4.757812 15.25 1.269531 13.21875 1.269531 8.765625 C 1.269531 4.308594 4.757812 2.277344 8 2.277344 C 9.796875 2.277344 11.460938 2.871094 12.683594 3.953125 C 14.023438 5.132812 14.734375 6.796875 14.734375 8.761719 C 14.734375 10.71875 14.023438 12.378906 12.683594 13.566406 C 11.457031 14.652344 9.792969 15.25 8 15.25 Z M 8 15.25"/><path style="stroke:none;fill-rule:nonzero;fill:#eb8f00;fill-opacity:1" d="M 8 2.527344 C 9.734375 2.527344 11.339844 3.097656 12.519531 4.140625 C 13.800781 5.269531 14.480469 6.871094 14.480469 8.765625 C 14.480469 10.648438 13.800781 12.242188 12.519531 13.378906 C 11.335938 14.421875 9.734375 15 8 15 C 6.257812 15 4.652344 14.433594 3.480469 13.398438 C 2.195312 12.269531 1.519531 10.667969 1.519531 8.761719 C 1.519531 6.847656 2.199219 5.242188 3.480469 4.117188 C 4.648438 3.089844 6.253906 2.527344 8 2.527344 M 8 2.027344 C 4.375 2.027344 1.019531 4.355469 1.019531 8.761719 C 1.019531 13.148438 4.375 15.5 8 15.5 C 11.625 15.5 14.980469 13.089844 14.980469 8.765625 C 14.980469 4.414062 11.625 2.027344 8 2.027344 Z M 8 2.027344"/><path style="stroke:none;fill-rule:nonzero;fill:#826156;fill-opacity:1" d="M 12.21875 3.738281 C 11.953125 2.230469 10.578125 0.0078125 9.332031 0.0234375 C 8.367188 0.0351562 8.542969 0.453125 8 0.453125 C 7.433594 0.453125 7.648438 0.0273438 6.734375 0.0234375 C 5.523438 0.015625 4.082031 2.09375 3.78125 3.65625 C 3.574219 4.738281 6.742188 4.027344 8.027344 4.027344 C 9.3125 4.027344 11.136719 3.941406 12.21875 3.738281 Z M 12.21875 3.738281"/><g clip-path="url(#clip1)" clip-rule="nonzero"><g clip-path="url(#clip2)" clip-rule="nonzero"><path style="stroke:none;fill-rule:nonzero;fill:#a1887f;fill-opacity:1" d="M 13.058594 4.929688 L 2.941406 4.929688 L 2.941406 1.9375 C 2.941406 1.9375 4.488281 2.824219 8 2.828125 C 11.523438 2.832031 13.0625 1.9375 13.0625 1.9375 L 13.0625 4.929688 Z M 13.058594 4.929688"/></g></g><path style="stroke:none;fill-rule:nonzero;fill:#4a251a;fill-opacity:1" d="M 0.378906 2.433594 C 0.378906 2.433594 4.6875 3.5 8 3.5 C 11.3125 3.5 15.511719 2.433594 15.511719 2.433594 C 15.511719 2.433594 13.457031 6.71875 8 6.71875 C 2.542969 6.71875 0.378906 2.433594 0.378906 2.433594 Z M 0.378906 2.433594"/><g clip-path="url(#clip3)" clip-rule="nonzero"><g clip-path="url(#clip4)" clip-rule="nonzero"><path style="stroke:none;fill-rule:nonzero;fill:#242424;fill-opacity:1" d="M 8 11.070312 C 6.742188 11.070312 5.574219 10.953125 4.597656 10.757812 C 4.355469 10.707031 4.140625 10.941406 4.191406 11.207031 C 4.515625 12.949219 6.078125 14.378906 7.996094 14.378906 C 10.101562 14.378906 11.515625 12.902344 11.808594 11.199219 C 11.855469 10.9375 11.640625 10.707031 11.402344 10.757812 C 10.425781 10.953125 9.257812 11.070312 8 11.070312 Z M 8 11.070312"/></g></g><g clip-path="url(#clip5)" clip-rule="nonzero"><g clip-path="url(#clip6)" clip-rule="nonzero"><path style="stroke:none;fill-rule:nonzero;fill:#fff;fill-opacity:1" d="M 12.261719 10.96875 L 12.261719 9.660156 L 3.738281 9.660156 L 3.738281 10.96875 C 5.050781 11.816406 6.488281 12.285156 8 12.285156 C 9.511719 12.285156 10.949219 11.816406 12.261719 10.96875 Z M 12.261719 10.96875"/></g></g><g clip-path="url(#clip7)" clip-rule="nonzero"><g clip-path="url(#clip8)" clip-rule="nonzero"><path style="stroke:none;fill-rule:nonzero;fill:#ed7770;fill-opacity:1" d="M 8 13.171875 C 7.058594 13.171875 6.234375 13.734375 5.796875 14.574219 C 6.367188 14.914062 7.140625 15.125 8 15.125 C 8.859375 15.125 9.632812 14.914062 10.203125 14.574219 C 9.765625 13.734375 8.941406 13.171875 8 13.171875 Z M 8 13.171875"/></g></g><g clip-path="url(#clip9)" clip-rule="nonzero"><g clip-path="url(#clip10)" clip-rule="nonzero"><g clip-path="url(#clip11)" clip-rule="nonzero"><path style="stroke:none;fill-rule:nonzero;fill:#eb8f00;fill-opacity:1" d="M 11.28125 11.289062 C 11.125 11.972656 10.765625 12.59375 10.25 13.054688 C 9.644531 13.59375 8.863281 13.878906 7.996094 13.878906 C 6.460938 13.878906 5.082031 12.777344 4.722656 11.289062 C 5.710938 11.472656 6.839844 11.570312 8 11.570312 C 9.160156 11.570312 10.289062 11.472656 11.28125 11.289062 M 11.464844 10.75 C 11.445312 10.75 11.421875 10.753906 11.402344 10.757812 C 10.425781 10.953125 9.257812 11.070312 8 11.070312 C 6.742188 11.070312 5.574219 10.953125 4.597656 10.757812 C 4.578125 10.753906 4.554688 10.75 4.535156 10.75 C 4.320312 10.75 4.148438 10.964844 4.191406 11.203125 C 4.515625 12.945312 6.078125 14.375 8 14.375 C 10.101562 14.375 11.515625 12.898438 11.808594 11.199219 C 11.851562 10.960938 11.675781 10.75 11.464844 10.75 Z M 11.464844 10.75"/></g></g></g><path style="stroke:none;fill-rule:nonzero;fill:#242424;fill-opacity:1" d="M 10.289062 7.171875 C 10.726562 7.171875 11.125 7.683594 11.125 8.539062 C 11.125 9.390625 10.726562 9.90625 10.289062 9.90625 C 9.847656 9.90625 9.449219 9.390625 9.449219 8.539062 C 9.449219 7.683594 9.851562 7.171875 10.289062 7.171875 Z M 10.289062 7.171875"/><path style="stroke:none;fill-rule:nonzero;fill:#242424;fill-opacity:1" d="M 5.710938 7.171875 C 5.273438 7.171875 4.875 7.683594 4.875 8.539062 C 4.875 9.390625 5.273438 9.90625 5.710938 9.90625 C 6.152344 9.90625 6.550781 9.390625 6.550781 8.539062 C 6.550781 7.683594 6.148438 7.171875 5.710938 7.171875 Z M 5.710938 7.171875"/></g></svg>

<svg xmlns="http://www.w3.org/2000/svg" width="16pt" height="16pt" viewBox="0 0 16 16"><defs><clipPath id="b"><path d="M3 1h10v4H3Zm0 0"/></clipPath><clipPath id="c"><path d="M12.355 4.285c-.304-1.633-1.53-4.531-2.843-4.531-1.094 0-.871.465-1.485.465-.644 0-.422-.465-1.46-.465-1.274 0-2.66 2.898-2.962 4.531 1.227.219 2.973.332 4.426.332 1.457 0 3.098-.113 4.324-.332m0 0"/></clipPath><clipPath id="d"><path d="M4 10h8v5H4Zm0 0"/></clipPath><clipPath id="e"><path d="M8 11.07c-1.258 0-2.426-.117-3.402-.312-.243-.051-.457.183-.407.449.325 1.742 1.887 3.172 3.805 3.172 2.106 0 3.52-1.477 3.813-3.18.046-.261-.168-.492-.407-.441-.976.195-2.144.312-3.402.312m0 0"/></clipPath><clipPath id="f"><path d="M4 10h8v3H4Zm0 0"/></clipPath><clipPath id="g"><path d="M8 11.07c-1.258 0-2.426-.117-3.402-.312-.243-.051-.457.183-.407.449.325 1.742 1.887 3.172 3.805 3.172 2.106 0 3.52-1.477 3.813-3.18.046-.261-.168-.492-.407-.441-.976.195-2.144.312-3.402.312m0 0"/></clipPath><clipPath id="h"><path d="M5 13h6v2H5Zm0 0"/></clipPath><clipPath id="i"><path d="M8 11.07c-1.258 0-2.426-.117-3.402-.312-.243-.051-.457.183-.407.449.325 1.742 1.887 3.172 3.805 3.172 2.106 0 3.52-1.477 3.813-3.18.046-.261-.168-.492-.407-.441-.976.195-2.144.312-3.402.312m0 0"/></clipPath><clipPath id="j"><path d="M4 10h8v5H4Zm0 0"/></clipPath><clipPath id="k"><path d="M8 11.07c-1.258 0-2.426-.117-3.402-.312-.243-.051-.457.183-.407.449.325 1.742 1.887 3.172 3.805 3.172 2.106 0 3.52-1.477 3.813-3.18.046-.261-.168-.492-.407-.441-.976.195-2.144.312-3.402.312m0 0"/></clipPath><clipPath id="l"><path d="M3.738 9.66v1.309c1.313.847 2.75 1.316 4.262 1.316s2.95-.469 4.262-1.316V9.66ZM8 13.172c-.941 0-1.766.562-2.203 1.402.57.34 1.344.551 2.203.551.86 0 1.633-.21 2.203-.55-.437-.84-1.262-1.403-2.203-1.403m0 0"/></clipPath><linearGradient id="a" x1="64" x2="64" y1="28.991" y2="110.68" gradientTransform="scale(.125)" gradientUnits="userSpaceOnUse"><stop offset=".5" style="stop-color:#fee133;stop-opacity:1"/><stop offset=".612" style="stop-color:#fede32;stop-opacity:1"/><stop offset=".708" style="stop-color:#fcd32f;stop-opacity:1"/><stop offset=".797" style="stop-color:#fac12b;stop-opacity:1"/><stop offset=".883" style="stop-color:#f7a924;stop-opacity:1"/><stop offset=".9" style="stop-color:#f6a323;stop-opacity:1"/></linearGradient></defs><path d="M8 4.969c-4.418 0-8-3.778-8-2.117 0 11.863 16 11.863 16 0 0-1.727-3.582 2.117-8 2.117m0 0" style="stroke:none;fill-rule:nonzero;fill:#7a5549;fill-opacity:1"/><path d="M8 15.25c-3.242 0-6.73-2.031-6.73-6.484 0-4.457 3.488-6.489 6.73-6.489 1.797 0 3.46.594 4.684 1.676 1.34 1.18 2.05 2.844 2.05 4.809 0 1.957-.71 3.617-2.05 4.804C11.457 14.652 9.793 15.25 8 15.25m0 0" style="stroke:none;fill-rule:nonzero;fill:url(#a)"/><path d="M8 2.527c1.734 0 3.34.57 4.52 1.614 1.28 1.129 1.96 2.73 1.96 4.625 0 1.882-.68 3.476-1.96 4.613C11.336 14.422 9.734 15 8 15c-1.742 0-3.348-.566-4.52-1.602-1.285-1.128-1.96-2.73-1.96-4.636 0-1.914.68-3.52 1.96-4.645C4.648 3.09 6.254 2.527 8 2.527m0-.5c-3.625 0-6.98 2.328-6.98 6.735C1.02 13.148 4.375 15.5 8 15.5s6.98-2.41 6.98-6.734c0-4.352-3.355-6.739-6.98-6.739m0 0" style="stroke:none;fill-rule:nonzero;fill:#eb8f00;fill-opacity:1"/><path d="M12.219 3.738C11.953 2.23 10.579.008 9.332.023c-.965.012-.789.43-1.332.43-.566 0-.352-.426-1.266-.43-1.21-.007-2.652 2.07-2.953 3.633-.207 1.082 2.961.371 4.246.371s3.11-.086 4.192-.289m0 0" style="stroke:none;fill-rule:nonzero;fill:#826156;fill-opacity:1"/><g clip-path="url(#b)"><g clip-path="url(#c)"><path d="M13.059 4.93H2.94V1.938s1.547.886 5.059.89c3.523.004 5.063-.89 5.063-.89V4.93Zm0 0" style="stroke:none;fill-rule:nonzero;fill:#a1887f;fill-opacity:1"/></g></g><path d="M.379 2.434S4.688 3.5 8 3.5s7.512-1.066 7.512-1.066S13.457 6.719 8 6.719.379 2.434.379 2.434m0 0" style="stroke:none;fill-rule:nonzero;fill:#4a251a;fill-opacity:1"/><g clip-path="url(#d)"><g clip-path="url(#e)"><path d="M8 11.07c-1.258 0-2.426-.117-3.402-.312-.243-.051-.457.183-.407.449.325 1.742 1.887 3.172 3.805 3.172 2.106 0 3.52-1.477 3.813-3.18.046-.261-.168-.492-.407-.441-.976.195-2.144.312-3.402.312m0 0" style="stroke:none;fill-rule:nonzero;fill:#242424;fill-opacity:1"/></g></g><g clip-path="url(#f)"><g clip-path="url(#g)"><path d="M12.262 10.969V9.66H3.738v1.309c1.313.847 2.75 1.316 4.262 1.316s2.95-.469 4.262-1.316m0 0" style="stroke:none;fill-rule:nonzero;fill:#fff;fill-opacity:1"/></g></g><g clip-path="url(#h)"><g clip-path="url(#i)"><path d="M8 13.172c-.941 0-1.766.562-2.203 1.402.57.34 1.344.551 2.203.551.86 0 1.633-.21 2.203-.55-.437-.84-1.262-1.403-2.203-1.403m0 0" style="stroke:none;fill-rule:nonzero;fill:#ed7770;fill-opacity:1"/></g></g><g clip-path="url(#j)"><g clip-path="url(#k)"><g clip-path="url(#l)"><path d="M11.281 11.29a3.38 3.38 0 0 1-1.031 1.765c-.605.539-1.387.824-2.254.824-1.535 0-2.914-1.102-3.273-2.59.988.184 2.117.281 3.277.281s2.29-.097 3.281-.28m.184-.54a.3.3 0 0 0-.063.008c-.976.195-2.144.312-3.402.312s-2.426-.117-3.402-.312a.3.3 0 0 0-.063-.008c-.215 0-.387.215-.344.453.325 1.742 1.887 3.172 3.809 3.172 2.102 0 3.516-1.477 3.809-3.176.043-.238-.133-.449-.344-.449m0 0" style="stroke:none;fill-rule:nonzero;fill:#eb8f00;fill-opacity:1"/></g></g></g><path d="M10.29 7.172c.437 0 .835.512.835 1.367 0 .852-.398 1.367-.836 1.367-.441 0-.84-.515-.84-1.367 0-.855.403-1.367.84-1.367M5.71 7.172c-.437 0-.835.512-.835 1.367 0 .852.398 1.367.836 1.367.441 0 .84-.515.84-1.367 0-.855-.403-1.367-.84-1.367m0 0" style="stroke:none;fill-rule:nonzero;fill:#242424;fill-opacity:1"/></svg>
